;FLAVOR:Marlin
;TIME:507
;Filament used: 0.151982m
;Layer height: 0.12
;MINX:10.992
;MINY:14.822
;MINZ:0.12
;MAXX:46.992
;MAXY:60.967
;MAXZ:2.52
;Generated with Cura_SteamEngine main
M82 ;absolute extrusion mode
G92 E0 ; Reset Extruder
G28 ; Home all axes
G29 ; Create Leveling mesh
M104 S175 ; Start heating up the nozzle most of the way
M190 S55 ; Start heating the bed, wait until target temperature reached
M109 S200 ; Finish heating the nozzle
G1 Z2.0 F3000 ; Move Z Axis up little to prevent scratching of Heat Bed
G1 X0.1 Y20 Z0.3 F5000.0 ; Move to start position
G1 X0.1 Y200.0 Z0.3 F1500.0 E15 ; Draw the first line
G1 X0.4 Y200.0 Z0.3 F5000.0 ; Move to side a little
G1 X0.4 Y20 Z0.3 F1500.0 E30 ; Draw the second line
G92 E0 ; Reset Extruder
G1 Z2.0 F3000 ; Move Z Axis up little to prevent scratching of Heat Bed
G1 X5 Y20 Z0.3 F5000.0 ; Move over to prevent blob squish
G92 E0
G92 E0
G1 F1500 E-6.5
;LAYER_COUNT:21
;LAYER:0
M107
M204 S500
G0 F6000 X14.878 Y17.449 Z0.12
G0 X10.993 Y26.347
;TYPE:SKIRT
G1 F1500 E0
G1 F1200 X11.002 Y25.682 E0.01327
G1 X11.055 Y24.746 E0.03198
G1 X11.187 Y23.817 E0.05071
G1 X11.398 Y22.903 E0.06943
G1 X11.686 Y22.011 E0.08813
G1 X12.049 Y21.146 E0.10685
G1 X12.484 Y20.315 E0.12557
G1 X12.988 Y19.525 E0.14427
G1 X13.558 Y18.78 E0.16299
G1 X14.19 Y18.086 E0.18172
G1 X14.878 Y17.449 E0.20043
G1 X15.618 Y16.873 E0.21915
G1 X16.404 Y16.361 E0.23787
G1 X17.231 Y15.919 E0.25658
G1 X18.093 Y15.549 E0.2753
G1 X18.983 Y15.253 E0.29402
G1 X19.895 Y15.035 E0.31273
G1 X20.822 Y14.894 E0.33144
G1 X21.693 Y14.835 E0.34886
G1 X22.322 Y14.822 E0.36142
G1 X35.443 Y14.823 E0.62326
G1 X36.141 Y14.833 E0.63719
G1 X37.077 Y14.887 E0.6559
G1 X38.005 Y15.019 E0.67461
G1 X38.919 Y15.231 E0.69333
G1 X39.811 Y15.52 E0.71204
G1 X40.676 Y15.883 E0.73076
G1 X41.506 Y16.319 E0.74947
G1 X42.297 Y16.824 E0.7682
G1 X43.041 Y17.395 E0.78692
G1 X43.734 Y18.027 E0.80564
G1 X44.371 Y18.715 E0.82435
G1 X44.946 Y19.456 E0.84306
G1 X45.457 Y20.242 E0.86177
G1 X45.899 Y21.07 E0.8805
G1 X46.268 Y21.932 E0.89922
G1 X46.563 Y22.822 E0.91793
G1 X46.781 Y23.734 E0.93664
G1 X46.921 Y24.662 E0.95537
G1 X46.979 Y25.523 E0.97259
G1 X46.992 Y26.152 E0.98514
G1 X46.991 Y49.367 E1.44842
G1 X46.982 Y50.094 E1.46293
G1 X46.931 Y51.031 E1.48166
G1 X46.799 Y51.959 E1.50037
G1 X46.59 Y52.873 E1.51908
G1 X46.303 Y53.766 E1.53779
G1 X45.941 Y54.632 E1.55653
G1 X45.507 Y55.463 E1.57523
G1 X45.003 Y56.254 E1.59395
G1 X44.434 Y56.999 E1.61266
G1 X43.803 Y57.694 E1.63139
G1 X43.116 Y58.332 E1.6501
G1 X42.377 Y58.909 E1.66881
G1 X41.591 Y59.421 E1.68753
G1 X40.765 Y59.864 E1.70624
G1 X39.903 Y60.236 E1.72497
G1 X39.014 Y60.532 E1.74367
G1 X38.102 Y60.752 E1.76239
G1 X37.175 Y60.893 E1.78111
G1 X36.291 Y60.954 E1.79879
G1 X35.662 Y60.967 E1.81134
G1 X22.557 Y60.966 E2.07287
G1 X21.859 Y60.957 E2.0868
G1 X20.923 Y60.905 E2.10551
G1 X19.994 Y60.773 E2.12423
G1 X19.08 Y60.563 E2.14295
G1 X18.187 Y60.276 E2.16167
G1 X17.322 Y59.913 E2.18039
G1 X16.491 Y59.479 E2.1991
G1 X15.7 Y58.975 E2.21781
G1 X14.955 Y58.405 E2.23653
G1 X14.261 Y57.774 E2.25525
G1 X13.624 Y57.087 E2.27395
G1 X13.047 Y56.347 E2.29267
G1 X12.535 Y55.561 E2.31139
G1 X12.092 Y54.734 E2.33011
G1 X11.721 Y53.873 E2.34882
G1 X11.425 Y52.983 E2.36754
G1 X11.206 Y52.071 E2.38626
G1 X11.065 Y51.144 E2.40497
G1 X11.005 Y50.255 E2.42275
G1 X10.992 Y49.625 E2.43533
G1 X10.993 Y26.347 E2.89987
G0 F6000 X11.393 Y26.353
G1 F1200 X11.402 Y25.688 E2.91314
G1 X11.454 Y24.768 E2.93153
G1 X11.586 Y23.857 E2.9499
G1 X11.797 Y22.961 E2.96827
G1 X12.084 Y22.086 E2.98664
G1 X12.447 Y21.24 E3.00501
G1 X12.881 Y20.428 E3.02339
G1 X13.384 Y19.657 E3.04176
G1 X13.953 Y18.933 E3.06013
G1 X14.581 Y18.261 E3.07849
G1 X15.266 Y17.645 E3.09687
G1 X16.002 Y17.092 E3.11525
G1 X16.783 Y16.604 E3.13362
G1 X17.603 Y16.186 E3.15199
G1 X18.457 Y15.841 E3.17037
G1 X19.337 Y15.571 E3.18874
G1 X20.237 Y15.379 E3.20711
G1 X21.151 Y15.265 E3.22549
G1 X21.704 Y15.235 E3.23654
G1 X22.322 Y15.222 E3.24887
G1 X35.285 Y15.222 E3.50757
G1 X36.135 Y15.233 E3.52453
G1 X37.054 Y15.286 E3.5429
G1 X37.965 Y15.419 E3.56127
G1 X38.861 Y15.63 E3.57964
G1 X39.735 Y15.918 E3.59801
G1 X40.582 Y16.281 E3.6164
G1 X41.393 Y16.716 E3.63476
G1 X42.163 Y17.22 E3.65313
G1 X42.887 Y17.789 E3.6715
G1 X43.559 Y18.419 E3.68988
G1 X44.174 Y19.104 E3.70826
G1 X44.727 Y19.84 E3.72663
G1 X45.214 Y20.621 E3.74499
G1 X45.631 Y21.442 E3.76337
G1 X45.976 Y22.296 E3.78175
G1 X46.245 Y23.176 E3.80012
G1 X46.437 Y24.077 E3.8185
G1 X46.55 Y24.99 E3.83686
G1 X46.579 Y25.534 E3.84773
G1 X46.592 Y26.152 E3.86007
G1 X46.591 Y49.362 E4.32325
G1 X46.582 Y50.089 E4.33776
G1 X46.531 Y51.008 E4.35612
G1 X46.4 Y51.92 E4.37451
G1 X46.19 Y52.816 E4.39287
G1 X45.904 Y53.691 E4.41125
G1 X45.543 Y54.538 E4.42962
G1 X45.109 Y55.35 E4.44799
G1 X44.607 Y56.122 E4.46637
G1 X44.039 Y56.847 E4.48475
G1 X43.411 Y57.52 E4.50312
G1 X42.727 Y58.136 E4.52149
G1 X41.992 Y58.69 E4.53986
G1 X41.212 Y59.179 E4.55823
G1 X40.392 Y59.598 E4.5766
G1 X39.539 Y59.944 E4.59497
G1 X38.659 Y60.215 E4.61335
G1 X37.759 Y60.408 E4.63172
G1 X36.845 Y60.523 E4.6501
G1 X36.28 Y60.554 E4.66139
G1 X35.662 Y60.567 E4.67373
G1 X22.562 Y60.566 E4.93515
G1 X21.864 Y60.557 E4.94908
G1 X20.945 Y60.505 E4.96745
G1 X20.034 Y60.374 E4.98582
G1 X19.138 Y60.164 E5.00419
G1 X18.263 Y59.877 E5.02256
G1 X17.416 Y59.515 E5.04094
G1 X16.604 Y59.081 E5.05932
G1 X15.833 Y58.579 E5.07768
G1 X15.108 Y58.011 E5.09606
G1 X14.435 Y57.382 E5.11444
G1 X13.82 Y56.698 E5.1328
G1 X13.266 Y55.963 E5.15117
G1 X12.778 Y55.182 E5.16954
G1 X12.359 Y54.362 E5.18792
G1 X12.013 Y53.509 E5.20629
G1 X11.743 Y52.629 E5.22466
G1 X11.55 Y51.728 E5.24305
G1 X11.436 Y50.815 E5.26141
G1 X11.405 Y50.244 E5.27282
G1 X11.392 Y49.625 E5.28518
G1 X11.393 Y26.353 E5.74959
G0 F6000 X11.793 Y26.358
G1 F1200 X11.802 Y25.693 E5.76287
G1 X11.854 Y24.791 E5.7809
G1 X11.986 Y23.898 E5.79891
G1 X12.196 Y23.02 E5.81693
G1 X12.483 Y22.163 E5.83496
G1 X12.845 Y21.336 E5.85298
G1 X13.278 Y20.544 E5.87099
G1 X13.78 Y19.793 E5.88902
G1 X14.347 Y19.089 E5.90706
G1 X14.973 Y18.439 E5.92507
G1 X15.654 Y17.846 E5.94309
G1 X16.386 Y17.316 E5.96112
G1 X17.161 Y16.853 E5.97914
G1 X17.974 Y16.46 E5.99716
G1 X18.819 Y16.14 E6.01519
G1 X19.688 Y15.897 E6.0332
G1 X20.576 Y15.731 E6.05122
G1 X21.715 Y15.635 E6.07403
G1 X22.322 Y15.622 E6.08615
G1 X35.285 Y15.622 E6.34484
G1 X36.129 Y15.633 E6.36169
G1 X37.031 Y15.686 E6.37972
G1 X37.924 Y15.818 E6.39773
G1 X38.802 Y16.029 E6.41575
G1 X39.658 Y16.317 E6.43377
G1 X40.485 Y16.679 E6.45179
G1 X41.277 Y17.114 E6.46982
G1 X42.028 Y17.616 E6.48785
G1 X42.731 Y18.183 E6.50587
G1 X43.381 Y18.81 E6.5239
G1 X43.973 Y19.492 E6.54192
G1 X44.503 Y20.223 E6.55994
G1 X44.965 Y20.999 E6.57796
G1 X45.358 Y21.812 E6.59598
G1 X45.676 Y22.657 E6.614
G1 X45.919 Y23.527 E6.63202
G1 X46.084 Y24.415 E6.65005
G1 X46.179 Y25.545 E6.67268
G1 X46.192 Y26.152 E6.68479
G1 X46.191 Y49.357 E7.14787
G1 X46.182 Y50.084 E7.16238
G1 X46.131 Y50.986 E7.18041
G1 X46 Y51.88 E7.19844
G1 X45.791 Y52.758 E7.21646
G1 X45.505 Y53.615 E7.23448
G1 X45.144 Y54.443 E7.25251
G1 X44.712 Y55.235 E7.27051
G1 X44.211 Y55.987 E7.28855
G1 X43.645 Y56.691 E7.30657
G1 X43.02 Y57.342 E7.32458
G1 X42.339 Y57.936 E7.34262
G1 X41.608 Y58.467 E7.36065
G1 X40.834 Y58.931 E7.37866
G1 X40.021 Y59.325 E7.39668
G1 X39.177 Y59.645 E7.4147
G1 X38.307 Y59.89 E7.43273
G1 X37.42 Y60.056 E7.45074
G1 X36.269 Y60.154 E7.4738
G1 X35.662 Y60.167 E7.48591
G1 X22.567 Y60.166 E7.74724
G1 X21.869 Y60.157 E7.76117
G1 X20.968 Y60.106 E7.77918
G1 X20.074 Y59.974 E7.79721
G1 X19.196 Y59.765 E7.81522
G1 X18.339 Y59.478 E7.83326
G1 X17.512 Y59.117 E7.85126
G1 X16.719 Y58.684 E7.8693
G1 X15.968 Y58.183 E7.88731
G1 X15.264 Y57.617 E7.90534
G1 X14.613 Y56.991 E7.92336
G1 X14.02 Y56.31 E7.94138
G1 X13.49 Y55.579 E7.9594
G1 X13.026 Y54.804 E7.97743
G1 X12.632 Y53.991 E7.99546
G1 X12.312 Y53.147 E8.01347
G1 X12.068 Y52.277 E8.0315
G1 X11.902 Y51.389 E8.04953
G1 X11.805 Y50.234 E8.07266
G1 X11.792 Y49.625 E8.08481
G1 X11.793 Y26.358 E8.54913
G1 F1500 E2.04913
;MESH:hex_nut_holder.stl
G0 F6000 X21.327 Y26.358
G0 X27.347 Y26.162
;TYPE:WALL-OUTER
G1 F1500 E8.54913
G1 F706.9 X28.963 Y26.161 E8.60388
G1 F709 X30.579 Y26.16 E8.65846
G1 F1500 E2.15846
G0 F6000 X30.969 Y26.272
G0 X32.971 Y28.84
G1 F1500 E8.65846
G0 F6000 X32.367 Y29.188
G1 F1200 X32.367 Y29.307 E8.66083
G1 X30.753 Y32.099 E8.72519
G1 X30.611 Y32.196 E8.72862
G1 X27.373 Y32.196 E8.79324
G1 X27.231 Y32.099 E8.79667
G1 X25.615 Y29.302 E8.86113
G1 X25.642 Y29.147 E8.86427
G1 F1170.7 X25.772 Y28.918 E8.86966
G1 F1111.1 X25.903 Y28.689 E8.87535
G1 F1059.6 X26.034 Y28.46 E8.88131
G1 F1010.5 X26.165 Y28.23 E8.88758
G1 F967.7 X26.296 Y28.001 E8.89411
G1 F926.6 X26.427 Y27.772 E8.90093
G1 F888.9 X26.558 Y27.543 E8.90803
G1 F855.6 X26.689 Y27.313 E8.91544
G1 F823.3 X26.82 Y27.084 E8.92312
G1 F794.7 X26.951 Y26.855 E8.93107
G1 F766.8 X27.082 Y26.625 E8.93933
G1 F741.9 X27.213 Y26.396 E8.94785
G1 F717.5 X27.344 Y26.167 E8.95665
G1 F861.8 X27.015 Y26.04 E8.96645
G1 F1108.5 X26.751 Y26.039 E8.97216
G1 F1116.3 X26.487 Y26.037 E8.97782
G1 F1124.1 X26.223 Y26.036 E8.98345
G1 F1134.8 X25.959 Y26.034 E8.98902
G1 F1142.9 X25.695 Y26.033 E8.99455
G1 F1151.1 X25.431 Y26.031 E9.00004
G1 F1159.4 X25.167 Y26.03 E9.00549
G1 F1167.9 X24.903 Y26.028 E9.01091
G1 F1179.4 X24.639 Y26.027 E9.01627
G1 F1188.1 X24.375 Y26.025 E9.02159
G1 F1197 X24.111 Y26.023 E9.02687
G1 F1200 X22.193 Y26.023 E9.06515
G1 X22.192 Y49.767 E9.53898
G1 X27.019 Y49.766 E9.63531
G1 F897.2 X27.405 Y49.633 E9.64621
G1 X27.231 Y49.399 E9.65399
G1 F1200 X25.615 Y46.602 E9.71846
G1 X25.642 Y46.447 E9.7216
G1 X27.231 Y43.697 E9.78498
G1 X27.373 Y43.6 E9.78841
G1 X30.611 Y43.6 E9.85303
G1 X30.753 Y43.697 E9.85646
G1 X32.367 Y46.489 E9.92082
G1 F1023.5 X32.367 Y46.607 E9.92358
G1 F884 X32.234 Y46.839 E9.93082
G1 F868 X32.101 Y47.072 E9.93822
G1 F851.1 X31.968 Y47.305 E9.94577
G1 F834.8 X31.835 Y47.537 E9.95344
G1 F820.5 X31.702 Y47.77 E9.96127
G1 F805.4 X31.569 Y48.003 E9.96925
G1 F790.8 X31.436 Y48.235 E9.97735
G1 F778 X31.303 Y48.468 E9.98561
G1 F764.3 X31.169 Y48.701 E9.99403
G1 F752.4 X31.036 Y48.933 E10.00254
G1 F739.6 X30.903 Y49.166 E10.01123
G1 F727.3 X30.77 Y49.399 E10.02006
G1 F716.4 X30.637 Y49.631 E10.029
G1 F863.3 X30.965 Y49.748 E10.03866
G1 F1103.4 X31.229 Y49.749 E10.04439
G1 F1113.7 X31.493 Y49.751 E10.05007
G1 F1121.5 X31.757 Y49.753 E10.05571
G1 F1129.4 X32.021 Y49.754 E10.0613
G1 F1140.1 X32.285 Y49.756 E10.06685
G1 F1148.3 X32.549 Y49.758 E10.07235
G1 F1156.6 X32.813 Y49.76 E10.07782
G1 F1167.9 X33.077 Y49.761 E10.08323
G1 F1176.5 X33.341 Y49.763 E10.08861
G1 F1185.2 X33.605 Y49.765 E10.09394
G1 F1197 X33.869 Y49.766 E10.09922
G1 F1200 X35.792 Y49.767 E10.1376
G1 X35.792 Y27.945 E10.57308
G1 X35.792 Y26.022 E10.61146
G1 X30.969 Y26.023 E10.7077
G1 F892.2 X30.579 Y26.16 E10.7188
G1 X30.753 Y26.398 E10.72671
G1 F1200 X32.367 Y29.188 E10.79104
G1 F1500 E4.29104
G0 F6000 X32.971 Y28.84
G0 X32.929 Y27.404
G0 X34.42 Y27.394
G0 X34.42 Y48.395
G0 X32.932 Y48.385
G0 X33.519 Y45.763
G0 X30.578 Y42.237
G0 X27.79 Y42.249
G0 X26.769 Y43.099
G1 F1500 E10.79104
G0 F6000 X27.092 Y43.286
;TYPE:WALL-INNER
G1 F1200 X27.337 Y43.198 E10.79623
G1 X30.647 Y43.198 E10.86228
G1 X30.893 Y43.285 E10.86749
G1 X31.099 Y43.497 E10.87339
G1 X32.689 Y46.247 E10.93678
G1 X32.762 Y46.444 E10.94098
G1 X32.761 Y46.655 E10.94519
G1 X32.689 Y46.849 E10.94932
G1 X31.234 Y49.366 E11.00733
G1 X35.392 Y49.367 E11.09031
G1 X35.392 Y27.945 E11.51781
G1 X35.392 Y26.422 E11.5482
G1 X31.23 Y26.423 E11.63126
G1 X32.689 Y28.947 E11.68944
G1 X32.762 Y29.144 E11.69363
G1 X32.761 Y29.355 E11.69784
G1 X32.689 Y29.549 E11.70197
G1 X31.099 Y32.299 E11.76536
G1 X30.893 Y32.511 E11.77126
G1 X30.647 Y32.598 E11.77647
G1 X27.337 Y32.598 E11.84253
G1 X27.091 Y32.51 E11.84774
G1 X26.885 Y32.299 E11.85362
G1 X25.296 Y29.549 E11.91701
G1 X25.224 Y29.352 E11.92119
G1 X25.225 Y29.141 E11.9254
G1 X25.296 Y28.947 E11.92952
G1 X26.755 Y26.423 E11.9877
G1 X22.593 Y26.423 E12.07076
G1 X22.592 Y49.367 E12.52863
G1 X26.75 Y49.366 E12.61161
G1 X25.296 Y46.849 E12.66962
G1 X25.224 Y46.652 E12.6738
G1 X25.225 Y46.441 E12.67802
G1 X25.296 Y46.247 E12.68214
G1 X26.885 Y43.497 E12.74552
G1 X27.092 Y43.286 E12.75142
G1 F1500 E6.25142
G0 F6000 X26.769 Y43.099
G0 X25.315 Y46.548
G0 X27.011 Y49.517
G1 F1500 E12.75142
G0 F6000 X27.405 Y49.633
;TYPE:WALL-OUTER
G1 F715.4 X28.482 Y49.633 E12.78747
G1 F713.2 X29.559 Y49.632 E12.82363
G1 F711.1 X30.636 Y49.632 E12.8599
G0 F6000 X30.973 Y49.517
G0 X34.992 Y48.967
;TYPE:WALL-INNER
G1 F1200 X34.992 Y27.945 E13.27942
G1 X34.992 Y26.822 E13.30183
G1 X31.923 Y26.823 E13.36308
G1 X33.035 Y28.747 E13.40742
G1 X33.157 Y29.075 E13.41441
G1 X33.157 Y29.421 E13.42131
G1 X33.035 Y29.749 E13.42829
G1 X31.445 Y32.499 E13.49169
G1 X31.287 Y32.706 E13.49688
G1 X31.101 Y32.852 E13.5016
G1 X30.689 Y32.998 E13.51032
G1 X27.294 Y32.998 E13.57808
G1 X26.883 Y32.852 E13.58678
G1 X26.697 Y32.706 E13.5915
G1 X26.538 Y32.499 E13.59671
G1 X24.949 Y29.749 E13.66009
G1 X24.83 Y29.42 E13.66707
G1 X24.831 Y29.071 E13.67404
G1 X24.949 Y28.747 E13.68092
G1 X26.061 Y26.823 E13.72526
G1 X22.993 Y26.823 E13.78649
G1 X22.992 Y48.967 E14.2284
G1 X26.058 Y48.966 E14.28958
G1 X24.949 Y47.049 E14.33378
G1 X24.83 Y46.72 E14.34076
G1 X24.831 Y46.371 E14.34773
G1 X24.949 Y46.047 E14.35461
G1 X26.538 Y43.297 E14.41799
G1 X26.698 Y43.09 E14.42321
G1 X26.883 Y42.944 E14.42791
G1 X27.294 Y42.798 E14.43662
G1 X30.689 Y42.798 E14.50437
G1 X31.101 Y42.944 E14.51309
G1 X31.287 Y43.09 E14.51781
G1 X31.445 Y43.297 E14.52301
G1 X33.035 Y46.047 E14.5864
G1 X33.157 Y46.375 E14.59338
G1 X33.157 Y46.721 E14.60029
G1 X33.035 Y47.049 E14.60727
G1 X31.927 Y48.966 E14.65146
G1 X34.992 Y48.967 E14.71262
G0 F6000 X32.932 Y48.385
G0 X33.132 Y46.548
G0 X31.061 Y42.964
G0 X27.253 Y42.398
G1 F1200 X30.731 Y42.398 E14.78203
G1 X31.046 Y42.477 E14.78851
G1 X31.31 Y42.602 E14.79434
G1 X31.569 Y42.806 E14.80092
G1 X31.792 Y43.097 E14.80823
G1 X33.382 Y45.846 E14.87161
G1 X33.55 Y46.3 E14.88127
G1 X33.55 Y46.796 E14.89117
G1 X33.382 Y47.25 E14.90083
G1 X32.62 Y48.566 E14.93118
G1 X34.592 Y48.567 E14.97053
G1 X34.592 Y27.945 E15.38206
G1 X34.592 Y27.222 E15.39649
G1 X32.616 Y27.223 E15.43592
G1 X33.382 Y28.546 E15.46643
G1 X33.55 Y29 E15.47609
G1 X33.55 Y29.496 E15.48599
G1 X33.382 Y29.95 E15.49565
G1 X31.792 Y32.699 E15.55903
G1 X31.569 Y32.989 E15.56633
G1 X31.31 Y33.193 E15.57291
G1 X31.047 Y33.319 E15.57873
G1 X30.732 Y33.398 E15.58521
G1 X27.25 Y33.398 E15.65469
G1 X26.938 Y33.318 E15.66112
G1 X26.674 Y33.193 E15.66695
G1 X26.415 Y32.988 E15.67354
G1 X26.192 Y32.699 E15.68083
G1 X24.603 Y29.949 E15.74421
G1 X24.437 Y29.495 E15.75386
G1 X24.437 Y29 E15.76373
G1 X24.603 Y28.547 E15.77336
G1 X25.368 Y27.223 E15.80388
G1 X23.393 Y27.223 E15.84329
G1 X23.392 Y48.567 E16.26923
G1 X25.365 Y48.567 E16.30861
G1 X24.603 Y47.249 E16.33899
G1 X24.437 Y46.795 E16.34863
G1 X24.437 Y46.3 E16.35851
G1 X24.603 Y45.847 E16.36814
G1 X26.192 Y43.097 E16.43152
G1 X26.415 Y42.807 E16.43882
G1 X26.674 Y42.603 E16.4454
G1 X26.938 Y42.477 E16.45124
G1 X27.253 Y42.398 E16.45772
G1 F1500 E9.95772
G0 F6000 X24.278 Y46.822
G0 X25.053 Y48.387
G0 X23.564 Y48.395
G0 X23.565 Y27.395
G0 X25.056 Y27.404
G0 X24.579 Y29.533
G0 X27.162 Y33.48
G1 F1500 E16.45772
G0 F6000 X27.142 Y33.739
;TYPE:SKIN
G1 F1200 X26.833 Y33.662 E16.46408
G1 X26.466 Y33.486 E16.4722
G1 X26.157 Y33.244 E16.48003
G1 X25.881 Y32.881 E16.48913
G1 X24.277 Y30.101 E16.55318
G1 F1224.5 X24.191 Y29.842 E16.55852
G1 F1269.8 X24.104 Y29.582 E16.56369
G1 F1329.6 X24.08 Y29.235 E16.56995
G1 F1322.3 X24.103 Y28.911 E16.57584
G1 F1191.1 X24.179 Y28.624 E16.5818
G1 F1041.2 X24.255 Y28.336 E16.58866
G1 F912.5 X24.358 Y28.086 E16.59575
G1 F854.1 X24.601 Y27.665 E16.60938
G1 X23.834 Y27.664 E16.63089
G1 X23.834 Y27.945 E16.63876
G1 F912.5 X23.798 Y28.214 E16.64589
G1 F1041.2 X23.769 Y28.53 E16.65318
G1 F1191.1 X23.74 Y28.847 E16.65958
G1 F1322.3 X23.729 Y29.28 E16.66743
G1 F1333.3 X23.737 Y29.584 E16.67289
G1 F1276.6 X23.745 Y29.888 E16.6786
G1 F1224.5 X23.753 Y30.192 E16.68454
